Hatter-kde/actions/22/format-node-curve.svg

<?xml version="1.0" encoding="UTF-8"?>
<svg viewBox="0 0 22 22" xmlns="http://www.w3.org/2000/svg">
 <defs id="defs3051">
  <style id="current-color-scheme" type="text/css">.ColorScheme-Text {
        color:#363636;
      }
      .ColorScheme-Highlight {
        color:#3daee9;
      }</style>
 </defs>
 <path class="ColorScheme-Text" d="m16 3v1a12 12 0 0 0-8.9258 4h0.92578v0.4707a11 11 0 0 1 8-3.4707v1h3v-3h-3zm1 1h1v1h-1v-1zm-10 4.0859a12 12 0 0 0-3 7.9141h-1v3h3v-3h-1a11 11 0 0 1 2.5215-7h-0.52148v-0.91406zm-3 8.9141h1v1h-1v-1z" fill="currentColor"/>
 <path class="ColorScheme-Highlight" d="m6 7v3h3v-3h-3zm1 1h1v1h-1v-1z" fill="currentColor"/>
</svg>

<svg xmlns="http://www.w3.org/2000/svg" viewBox="0 0 22 22">
  <defs id="defs3051">
    <style type="text/css" id="current-color-scheme">
      .ColorScheme-Text {
        color:#363636;
      }
      .ColorScheme-Highlight {
        color:#3daee9;
      }
      </style>
  </defs>
 <path 
     style="fill:currentColor;fill-opacity:1;stroke:none" 
     d="M 16 3 L 16 4 A 12 12 0 0 0 7.0742188 8 L 8 8 L 8 8.4707031 A 11 11 0 0 1 16 5 L 16 6 L 19 6 L 19 3 L 16 3 z M 17 4 L 18 4 L 18 5 L 17 5 L 17 4 z M 7 8.0859375 A 12 12 0 0 0 4 16 L 3 16 L 3 19 L 6 19 L 6 16 L 5 16 A 11 11 0 0 1 7.5214844 9 L 7 9 L 7 8.0859375 z M 4 17 L 5 17 L 5 18 L 4 18 L 4 17 z "
     class="ColorScheme-Text"
     />
 <path 
     style="fill:currentColor;fill-opacity:1;stroke:none" 
     d="M 6 7 L 6 10 L 9 10 L 9 7 L 6 7 z M 7 8 L 8 8 L 8 9 L 7 9 L 7 8 z "
     class="ColorScheme-Highlight"
     />
</svg>
